files/icons/submit.svg

<svg width="38" height="38" viewBox="0 0 38 38" fill="none" xmlns="http://www.w3.org/2000/svg">
<rect width="38" height="38" rx="19" fill="#F6B17A"/>
<path d="M15.4965 28.8571C15.9375 29.298 16.6523 29.298 17.0933 28.8571L24.5948 21.3554C25.9172 20.0331 25.9176 17.8893 24.5958 16.5664L17.1778 9.14278C16.737 8.70179 16.0221 8.70179 15.5812 9.14278C15.1403 9.58366 15.1403 10.2985 15.5812 10.7394L23.0011 18.1592C23.442 18.6002 23.442 19.315 23.0011 19.7559L15.4965 27.2604C15.0556 27.7013 15.0556 28.4162 15.4965 28.8571Z" fill="#2D3250"/>
</svg>

<svg width="38" height="38" fill="none" xmlns="http://www.w3.org/2000/svg">
  <rect width="38" height="38" rx="19" fill="#F6B17A"/>
  <path d="M15.496 28.857a1.13 1.13 0 0 0 1.597 0l7.502-7.502a3.387 3.387 0 0 0 0-4.789l-7.417-7.423a1.129 1.129 0 1 0-1.597 1.596l7.42 7.42a1.13 1.13 0 0 1 0 1.597l-7.505 7.504a1.13 1.13 0 0 0 0 1.597Z" fill="#2D3250"/>
</svg>
